src/assets/img/mastercard.svg

<svg width="55" height="42" viewBox="0 0 55 42" fill="none" xmlns="http://www.w3.org/2000/svg">
<path d="M53.1984 41.4262V41.5341H53.2991C53.318 41.5344 53.3366 41.5297 53.3531 41.5204C53.3596 41.5157 53.3649 41.5095 53.3684 41.5023C53.372 41.4951 53.3736 41.4871 53.3733 41.4791C53.3736 41.4712 53.372 41.4634 53.3684 41.4563C53.3649 41.4493 53.3596 41.4433 53.3531 41.4388C53.3368 41.4291 53.318 41.4243 53.2991 41.4251H53.1984V41.4262ZM53.3002 41.3498C53.3433 41.3471 53.386 41.3595 53.4211 41.3849C53.4351 41.3964 53.4463 41.411 53.4536 41.4276C53.461 41.4442 53.4643 41.4623 53.4634 41.4804C53.4641 41.496 53.4614 41.5116 53.4555 41.5261C53.4496 41.5405 53.4408 41.5536 53.4294 41.5643C53.4024 41.5878 53.3685 41.6019 53.3328 41.6046L53.4678 41.7584H53.3638L53.2397 41.6056H53.1995V41.7584H53.1126V41.35H53.3015L53.3002 41.3498ZM53.2732 41.8993C53.3187 41.8997 53.3639 41.8905 53.4057 41.8723C53.446 41.855 53.4826 41.8301 53.5136 41.7992C53.5447 41.7682 53.5696 41.7316 53.5868 41.6912C53.6222 41.6057 53.6222 41.5095 53.5868 41.424C53.5693 41.3838 53.5445 41.3472 53.5136 41.316C53.4826 41.2851 53.446 41.2603 53.4057 41.2429C53.3636 41.2257 53.3186 41.217 53.2732 41.2175C53.227 41.2171 53.1811 41.2257 53.1382 41.2429C53.097 41.2599 53.0596 41.2848 53.0278 41.316C52.9801 41.365 52.9478 41.427 52.935 41.4941C52.9222 41.5613 52.9294 41.6308 52.9558 41.6939C52.9722 41.7344 52.9967 41.7711 53.0278 41.8019C53.0596 41.8331 53.0971 41.858 53.1382 41.875C53.1809 41.8932 53.2268 41.9024 53.2732 41.902V41.8993ZM53.2732 41.1193C53.3918 41.1192 53.5057 41.1657 53.5903 41.2488C53.6311 41.2888 53.6636 41.3364 53.6858 41.3889C53.7089 41.4429 53.7208 41.5009 53.7208 41.5596C53.7208 41.6183 53.7089 41.6764 53.6858 41.7303C53.663 41.7826 53.6306 41.8301 53.5903 41.8704C53.5489 41.9101 53.5007 41.9421 53.4481 41.9649C53.3928 41.9884 53.3332 42.0003 53.2732 42C53.2124 42.0004 53.1521 41.9885 53.0961 41.9649C53.0429 41.9426 52.9942 41.9106 52.9528 41.8704C52.9125 41.8286 52.8805 41.7795 52.8586 41.7257C52.8355 41.6718 52.8236 41.6137 52.8236 41.555C52.8236 41.4964 52.8355 41.4383 52.8586 41.3843C52.8809 41.3318 52.9134 41.2842 52.9541 41.2443C52.995 41.2034 53.0438 41.1712 53.0975 41.1498C53.1535 41.1262 53.2137 41.1143 53.2745 41.1147L53.2732 41.1193ZM11.9469 39.5423C11.9469 38.7636 12.457 38.124 13.2907 38.124C14.0874 38.124 14.625 38.7361 14.625 39.5423C14.625 40.3485 14.0874 40.9606 13.2907 40.9606C12.457 40.9606 11.9469 40.3209 11.9469 39.5423ZM15.5332 39.5423V37.3265H14.57V37.8662C14.2645 37.4673 13.801 37.2172 13.1708 37.2172C11.9293 37.2172 10.955 38.1909 10.955 39.5434C10.955 40.8958 11.9288 41.8696 13.1708 41.8696C13.8008 41.8696 14.2645 41.6191 14.57 41.2205V41.7584H15.5322V39.5423H15.5332ZM48.0804 39.5423C48.0804 38.7636 48.5905 38.124 49.4245 38.124C50.222 38.124 50.7588 38.7361 50.7588 39.5423C50.7588 40.3485 50.222 40.9606 49.4245 40.9606C48.5908 40.9606 48.0804 40.3209 48.0804 39.5423ZM51.6678 39.5423V35.5479H50.7038V37.8662C50.3982 37.4673 49.9348 37.2172 49.3046 37.2172C48.0631 37.2172 47.0888 38.1909 47.0888 39.5434C47.0888 40.8958 48.0626 41.8696 49.3046 41.8696C49.9348 41.8696 50.3982 41.6191 50.7038 41.2205V41.7584H51.6678V39.5423ZM27.4885 38.0784C28.1093 38.0784 28.5079 38.4676 28.6096 39.1528H26.3112C26.414 38.5132 26.8024 38.0784 27.4888 38.0784H27.4885ZM27.5079 37.2147C26.2097 37.2147 25.3015 38.1594 25.3015 39.5409C25.3015 40.9495 26.2462 41.8672 27.5724 41.8672C28.2396 41.8672 28.8507 41.7006 29.3883 41.2464L28.9162 40.5325C28.5449 40.8294 28.072 40.9959 27.6275 40.9959C27.0067 40.9959 26.4416 40.7085 26.3026 39.911H29.5918C29.6012 39.7911 29.6109 39.6702 29.6109 39.5407C29.6012 38.1596 28.7473 37.2145 27.5074 37.2145L27.5079 37.2147ZM39.1372 39.5407C39.1372 38.762 39.6473 38.1224 40.481 38.1224C41.2777 38.1224 41.8153 38.7345 41.8153 39.5407C41.8153 40.3469 41.2777 40.959 40.481 40.959C39.6473 40.959 39.1369 40.3193 39.1369 39.5407H39.1372ZM42.7232 39.5407V37.3265H41.7605V37.8662C41.4539 37.4673 40.9916 37.2172 40.3614 37.2172C39.1199 37.2172 38.1456 38.1909 38.1456 39.5434C38.1456 40.8958 39.1193 41.8696 40.3614 41.8696C40.9916 41.8696 41.4539 41.6191 41.7605 41.2205V41.7584H42.7235V39.5423L42.7232 39.5407ZM33.6974 39.5407C33.6974 40.8845 34.6329 41.8669 36.0606 41.8669C36.7278 41.8669 37.1723 41.7185 37.653 41.3387L37.1904 40.5601C36.8287 40.82 36.449 40.959 36.0299 40.959C35.2609 40.9495 34.6955 40.3935 34.6955 39.5407C34.6955 38.6878 35.2609 38.1321 36.0299 38.1224C36.4479 38.1224 36.8277 38.2614 37.1904 38.5213L37.653 37.7426C37.1715 37.3629 36.727 37.2145 36.0606 37.2145C34.6329 37.2145 33.6974 38.1966 33.6974 39.5407ZM46.1153 37.2145C45.5596 37.2145 45.1976 37.4744 44.9474 37.8636V37.3265H43.9928V41.756H44.9572V39.2729C44.9572 38.5399 45.2721 38.1326 45.9018 38.1326C46.108 38.1297 46.3127 38.1675 46.5042 38.2441L46.8011 37.3362C46.5879 37.2522 46.3099 37.2153 46.1147 37.2153L46.1153 37.2145ZM20.2955 37.6787C19.8321 37.3732 19.1935 37.2153 18.4891 37.2153C17.3669 37.2153 16.6444 37.7532 16.6444 38.6333C16.6444 39.3555 17.1823 39.8011 18.1728 39.9401L18.6278 40.0049C19.156 40.0791 19.4054 40.2181 19.4054 40.4683C19.4054 40.8108 19.0545 41.0062 18.3957 41.0062C17.7286 41.0062 17.2471 40.793 16.9224 40.5428L16.4698 41.2939C16.998 41.6831 17.6651 41.8688 18.3876 41.8688C19.6669 41.8688 20.4083 41.2664 20.4083 40.423C20.4083 39.6443 19.8248 39.237 18.8608 39.098L18.4068 39.0322C17.9898 38.9782 17.6557 38.8943 17.6557 38.5974C17.6557 38.2735 17.9707 38.0787 18.4991 38.0787C19.0645 38.0787 19.6119 38.2919 19.8802 38.4584L20.2971 37.6798L20.2955 37.6787ZM32.7245 37.2161C32.1687 37.2161 31.8068 37.476 31.5577 37.8652V37.3265H30.6031V41.756H31.5663V39.2729C31.5663 38.5399 31.8813 38.1326 32.511 38.1326C32.7172 38.1297 32.9219 38.1675 33.1134 38.2441L33.4103 37.3362C33.197 37.2522 32.919 37.2153 32.7239 37.2153L32.7245 37.2161ZM24.5045 37.3265H22.9294V35.9827H21.9556V37.3265H21.0572V38.2069H21.9556V40.2276C21.9556 41.2553 22.3546 41.8674 23.494 41.8674C23.9121 41.8674 24.3936 41.7379 24.6991 41.5249L24.4209 40.7001C24.1334 40.8667 23.8185 40.9506 23.568 40.9506C23.0865 40.9506 22.9294 40.6537 22.9294 40.2092V38.2077H24.5045V37.3265ZM10.1032 41.7571V38.9771C10.1032 37.9302 9.43604 37.2258 8.36051 37.2163C7.79508 37.2069 7.21183 37.3829 6.80348 38.0044C6.49796 37.5132 6.01647 37.2163 5.33957 37.2163C4.86645 37.2163 4.40412 37.3553 4.04219 37.8741V37.3265H3.07812V41.756H4.04975V39.2999C4.04975 38.531 4.47618 38.1224 5.13472 38.1224C5.77437 38.1224 6.09798 38.5394 6.09798 39.2902V41.7554H7.07176V39.2994C7.07176 38.5305 7.51628 38.1218 8.15566 38.1218C8.81339 38.1218 9.12728 38.5388 9.12728 39.2897V41.7549L10.1032 41.7571Z" fill="#231F20"/>
<path d="M53.7496 27.0218V26.374H53.5809L53.3858 26.8185L53.1918 26.374H53.0225V27.0218H53.1424V26.5338L53.3248 26.9548H53.449L53.6314 26.5327V27.0218H53.7502H53.7496ZM52.6795 27.0218V26.485H52.8954V26.3756H52.3438V26.485H52.5597V27.0218H52.6784H52.6795Z" fill="#F79410"/>
<path d="M34.578 29.8012H19.9805V3.56738H34.5783L34.578 29.8012Z" fill="#FF5F00"/>
<path d="M20.9051 16.6841C20.9051 11.3626 23.3968 6.62216 27.2768 3.56722C24.3398 1.25138 20.7073 -0.0055082 16.9671 1.81463e-05C7.75369 1.81463e-05 0.285156 7.46963 0.285156 16.6841C0.285156 25.8986 7.75369 33.3682 16.9671 33.3682C20.7073 33.3738 24.34 32.1169 27.2771 29.801C23.3973 26.7466 20.9051 22.0059 20.9051 16.6841Z" fill="#EB001B"/>
<path d="M54.2706 16.6841C54.2706 25.8986 46.8021 33.3682 37.5887 33.3682C33.848 33.3737 30.2149 32.1168 27.2773 29.801C31.1584 26.7461 33.6501 22.0059 33.6501 16.6841C33.6501 11.3623 31.1584 6.62216 27.2773 3.56722C30.2149 1.25145 33.8478 -0.00541134 37.5884 1.75133e-05C46.8018 1.75133e-05 54.2703 7.46963 54.2703 16.6841" fill="#F79E1B"/>
</svg>

<svg width="55" height="42" fill="none" xmlns="http://www.w3.org/2000/svg"><path d="M53.198 41.426v.108h.101a.106.106 0 0 0 .054-.014.049.049 0 0 0 .02-.04.046.046 0 0 0-.02-.041.098.098 0 0 0-.054-.014h-.1v.001Zm.102-.076a.186.186 0 0 1 .121.035.116.116 0 0 1 .042.095.108.108 0 0 1-.034.084.166.166 0 0 1-.096.04l.135.154h-.104l-.124-.152h-.04v.152h-.087v-.408h.188Zm-.027.55a.347.347 0 0 0 .314-.208.35.35 0 0 0 0-.268.355.355 0 0 0-.181-.181.355.355 0 0 0-.268 0 .346.346 0 0 0-.11.073.35.35 0 0 0 0 .486.347.347 0 0 0 .245.1v-.003Zm0-.78a.452.452 0 0 1 .413.269.434.434 0 0 1-.096.481.442.442 0 0 1-.317.13.449.449 0 0 1-.45-.445.434.434 0 0 1 .274-.405.448.448 0 0 1 .178-.035l-.002.004Zm-41.326-1.578c0-.778.51-1.418 1.344-1.418.796 0 1.334.612 1.334 1.418 0 .806-.538 1.419-1.334 1.419-.834 0-1.344-.64-1.344-1.419Zm3.586 0v-2.215h-.963v.54c-.306-.4-.769-.65-1.4-.65-1.24 0-2.215.974-2.215 2.326 0 1.353.974 2.327 2.216 2.327.63 0 1.094-.25 1.399-.65v.538h.962v-2.216h.001Zm32.547 0c0-.778.51-1.418 1.345-1.418.797 0 1.334.612 1.334 1.418 0 .806-.537 1.419-1.334 1.419-.834 0-1.345-.64-1.345-1.419Zm3.588 0v-3.994h-.964v2.318c-.306-.399-.77-.649-1.4-.649-1.24 0-2.215.974-2.215 2.326 0 1.353.974 2.327 2.216 2.327.63 0 1.093-.25 1.399-.65v.538h.964v-2.216Zm-24.18-1.464c.621 0 1.02.39 1.122 1.075H26.31c.103-.64.491-1.075 1.178-1.075Zm.02-.863c-1.298 0-2.206.944-2.206 2.326 0 1.409.944 2.326 2.27 2.326.668 0 1.279-.166 1.816-.62l-.472-.715a2.112 2.112 0 0 1-1.288.464c-.621 0-1.186-.288-1.325-1.085h3.289c.01-.12.019-.24.019-.37-.01-1.381-.864-2.326-2.104-2.326Zm11.63 2.326c0-.779.51-1.419 1.343-1.419.797 0 1.334.612 1.334 1.419 0 .806-.537 1.418-1.334 1.418-.834 0-1.344-.64-1.344-1.418Zm3.585 0v-2.214h-.962v.54c-.307-.4-.77-.65-1.4-.65-1.241 0-2.215.974-2.215 2.326 0 1.353.973 2.327 2.215 2.327.63 0 1.093-.25 1.4-.65v.538h.962v-2.217Zm-9.026 0c0 1.344.936 2.326 2.364 2.326.667 0 1.111-.148 1.592-.528l-.463-.779c-.361.26-.741.399-1.16.399-.77-.01-1.334-.566-1.334-1.418 0-.853.565-1.409 1.334-1.419.418 0 .798.14 1.16.4l.463-.78c-.481-.38-.926-.527-1.592-.527-1.428 0-2.364.982-2.364 2.326Zm12.418-2.326c-.555 0-.917.26-1.168.649v-.537h-.954v4.429h.964v-2.483c0-.733.315-1.14.945-1.14.206-.003.41.034.602.111l.297-.908a2.047 2.047 0 0 0-.686-.12v-.002Zm-25.82.464c-.463-.306-1.102-.464-1.806-.464-1.122 0-1.845.538-1.845 1.418 0 .722.538 1.168 1.529 1.307l.455.065c.528.074.777.213.777.463 0 .343-.35.538-1.01.538-.666 0-1.148-.213-1.473-.463l-.452.75c.528.39 1.195.576 1.918.576 1.279 0 2.02-.603 2.02-1.446 0-.779-.583-1.186-1.547-1.325l-.454-.066c-.417-.054-.751-.138-.751-.435 0-.324.315-.518.843-.518.566 0 1.113.213 1.381.38l.417-.78h-.002Zm12.43-.463c-.556 0-.918.26-1.167.65v-.54h-.955v4.43h.963v-2.483c0-.733.315-1.14.945-1.14.206-.003.41.034.602.111l.297-.908a2.047 2.047 0 0 0-.686-.12Zm-8.22.11h-1.576v-1.343h-.973v1.344h-.899v.88h.899v2.02c0 1.028.399 1.64 1.538 1.64.418 0 .9-.13 1.205-.342l-.278-.825c-.288.167-.602.25-.853.25-.482 0-.639-.296-.639-.74v-2.002h1.576v-.881Zm-14.402 4.431v-2.78c0-1.047-.667-1.751-1.742-1.76-.566-.01-1.15.166-1.558.787-.305-.49-.787-.788-1.463-.788-.474 0-.936.14-1.298.658v-.547h-.964v4.429h.972V39.3c0-.769.426-1.178 1.085-1.178.64 0 .963.417.963 1.168v2.465h.974V39.3c0-.768.444-1.177 1.084-1.177.657 0 .971.417.971 1.168v2.465l.976.002Z" fill="#231F20"/><path d="M53.75 27.022v-.648h-.17l-.194.445-.194-.445h-.17v.648h.12v-.488l.183.42h.124l.182-.421v.489h.12-.001Zm-1.07 0v-.537h.215v-.11h-.551v.11h.216v.537h.12Z" fill="#F79410"/><path d="M34.578 29.801H19.98V3.567h14.598v26.234Z" fill="#FF5F00"/><path d="M20.905 16.684a16.657 16.657 0 0 1 6.372-13.117A16.61 16.61 0 0 0 16.967 0C7.754 0 .285 7.47.285 16.684c0 9.215 7.469 16.684 16.682 16.684a16.611 16.611 0 0 0 10.31-3.567 16.656 16.656 0 0 1-6.372-13.117Z" fill="#EB001B"/><path d="M54.27 16.684c0 9.215-7.468 16.684-16.681 16.684a16.616 16.616 0 0 1-10.312-3.567 16.654 16.654 0 0 0 6.373-13.117 16.654 16.654 0 0 0-6.373-13.117A16.616 16.616 0 0 1 37.588 0C46.802 0 54.27 7.47 54.27 16.684" fill="#F79E1B"/></svg>
